public/cloud-icons/azure/identity/azure-ad-b2b.svg

<?xml version="1.0" encoding="UTF-8" standalone="no"?>
<!-- Generated by Microsoft Visio, SVG Export Azure AD B2B.svg Page-1 -->

<svg
   xmlns:dc="http://purl.org/dc/elements/1.1/"
   xmlns:cc="http://creativecommons.org/ns#"
   xmlns:rdf="http://www.w3.org/1999/02/22-rdf-syntax-ns#"
   xmlns:svg="http://www.w3.org/2000/svg"
   xmlns="http://www.w3.org/2000/svg"
   xmlns:sodipodi="http://sodipodi.sourceforge.net/DTD/sodipodi-0.dtd"
   xmlns:inkscape="http://www.inkscape.org/namespaces/inkscape"
   width="0.78744477in"
   height="0.74796796in"
   viewBox="0 0 56.695926 53.853673"
   xml:space="preserve"
   class="st11"
   version="1.1"
   id="svg85"
   sodipodi:docname="Azure AD B2B.svg"
   style="font-size:12px;overflow:visible;color-interpolation-filters:sRGB;fill:none;fill-rule:evenodd;stroke-linecap:square;stroke-miterlimit:3"
   inkscape:version="0.92.5 (2060ec1f9f, 2020-04-08)"><metadata
   id="metadata89"><rdf:RDF><cc:Work
       rdf:about=""><dc:format>image/svg+xml</dc:format><dc:type
         rdf:resource="http://purl.org/dc/dcmitype/StillImage" /></cc:Work></rdf:RDF></metadata><sodipodi:namedview
   pagecolor="#ffffff"
   bordercolor="#666666"
   borderopacity="1"
   objecttolerance="10"
   gridtolerance="10"
   guidetolerance="10"
   inkscape:pageopacity="0"
   inkscape:pageshadow="2"
   inkscape:window-width="640"
   inkscape:window-height="480"
   id="namedview87"
   showgrid="false"
   inkscape:zoom="1.5076527"
   inkscape:cx="37.795219"
   inkscape:cy="32.91211"
   inkscape:window-x="0"
   inkscape:window-y="0"
   inkscape:window-maximized="0"
   inkscape:current-layer="svg85" />
	<style
   type="text/css"
   id="style2">
	<![CDATA[
		.st1 {fill:#50e6ff;stroke:none;stroke-linecap:butt;stroke-width:29.5271}
		.st2 {fill:#ffffff;stroke:none;stroke-linecap:butt;stroke-width:29.5271}
		.st3 {fill:url(#grad0-12);stroke:none;stroke-linecap:butt;stroke-width:29.5271}
		.st4 {fill:#53b1e0;stroke:none;stroke-linecap:butt;stroke-width:29.5271}
		.st5 {fill:#9cebff;stroke:none;stroke-linecap:butt;stroke-width:29.5271}
		.st6 {fill:#5ea0ef;stroke:none;stroke-linecap:butt;stroke-width:29.5271}
		.st7 {fill:#773adc;stroke:none;stroke-linecap:butt;stroke-width:27.2242}
		.st8 {fill:#ffffff;fill-opacity:0.8;stroke:none;stroke-linecap:butt;stroke-width:27.2242}
		.st9 {fill:#a67af4;stroke:none;stroke-linecap:butt;stroke-width:29.5271}
		.st10 {fill:#ffffff;fill-opacity:0.8;stroke:none;stroke-linecap:butt;stroke-width:29.5271}
		.st11 {fill:none;fill-rule:evenodd;font-size:12px;overflow:visible;stroke-linecap:square;stroke-miterlimit:3}
	]]>
	</style>

	<defs
   id="Patterns_And_Gradients">
		<linearGradient
   id="grad0-12"
   x1="0"
   y1="54.678965"
   x2="31.904667"
   y2="54.678965"
   gradientTransform="scale(0.73750965,1.3559145)"
   gradientUnits="userSpaceOnUse">
			<stop
   offset="0"
   stop-color="#1988d9"
   stop-opacity="1"
   id="stop4" />
			<stop
   offset="0.9"
   stop-color="#54aef0"
   stop-opacity="1"
   id="stop6" />
		</linearGradient>
	</defs>
	<g
   id="g83"
   transform="translate(-29.527173,-29.5309)">
		<title
   id="title10">Page-1</title>
		<g
   id="group14669-1"
   transform="translate(29.5271,-34.0157)">
			<title
   id="title12">Azure AD B2B.14669</title>
			<g
   id="group14670-2">
				<title
   id="title14">layer1</title>
				<g
   id="shape14671-3"
   transform="translate(0,-1.17538)">
					<title
   id="title16">path4</title>
					<path
   d="M 3.18,94.9 28.13,111.39 53.51,94.84 56.69,98.6 28.13,117.4 0,98.63 Z"
   class="st1"
   id="path18"
   inkscape:connector-curvature="0"
   style="fill:#50e6ff;stroke:none;stroke-width:29.52709961;stroke-linecap:butt" />
				</g>
				<g
   id="shape14672-5"
   transform="translate(5.07086,-10.5934)">
					<title
   id="title21">path6</title>
					<path
   d="M 0,102.2 23.06,74.14 46.58,102.23 23.06,117.4 Z"
   class="st2"
   id="path23"
   inkscape:connector-curvature="0"
   style="fill:#ffffff;stroke:none;stroke-width:29.52709961;stroke-linecap:butt" />
				</g>
				<g
   id="shape14673-7"
   transform="translate(5.07086,-10.5934)">
					<title
   id="title26">path8</title>
					<path
   d="M 23.06,74.14 V 117.4 L 0,102.2 Z"
   class="st1"
   id="path28"
   inkscape:connector-curvature="0"
   style="fill:#50e6ff;stroke:none;stroke-width:29.52709961;stroke-linecap:butt" />
				</g>
				<g
   id="shape14674-9"
   transform="translate(28.126,-10.5934)">
					<title
   id="title31">path10</title>
					<path
   d="M 0,74.14 V 117.4 L 23.53,102.23 Z"
   class="st3"
   id="path33"
   inkscape:connector-curvature="0"
   style="fill:url(#grad0-12);stroke:none;stroke-width:29.52709961;stroke-linecap:butt" />
				</g>
				<g
   id="shape14675-13"
   transform="translate(28.126,-10.5934)">
					<title
   id="title36">path12</title>
					<path
   d="M 0,96.48 23.53,102.23 0,117.4 Z"
   class="st4"
   id="path38"
   inkscape:connector-curvature="0"
   style="fill:#53b1e0;stroke:none;stroke-width:29.52709961;stroke-linecap:butt" />
				</g>
				<g
   id="shape14676-15"
   transform="translate(5.07086,-10.5934)">
					<title
   id="title41">path14</title>
					<path
   d="M 23.06,117.4 0,102.2 23.06,96.48 Z"
   class="st5"
   id="path43"
   inkscape:connector-curvature="0"
   style="fill:#9cebff;stroke:none;stroke-width:29.52709961;stroke-linecap:butt" />
				</g>
				<g
   id="shape14677-17"
   transform="translate(28.126,-1.17538)">
					<title
   id="title46">path16</title>
					<path
   d="M 0,117.4 28.57,98.6 25.39,94.84 0,111.39 Z"
   class="st6"
   id="path48"
   inkscape:connector-curvature="0"
   style="fill:#5ea0ef;stroke:none;stroke-width:29.52709961;stroke-linecap:butt" />
				</g>
				<g
   id="shape14678-19"
   transform="translate(41.461,-5.68557)">
					<title
   id="title51">path18-6</title>
					<path
   d="m 12.35,117.25 a 1.37328,1.21328 -90 0 0 1.22,-1.38 7.80272,6.89363 -90 0 0 -6.76,-7.8 c -4.22,0 -6.4,2.96 -6.81,7.8 a 1.40449,1.24085 -90 0 0 1.08,1.53 h 11.27 z"
   class="st7"
   id="path53"
   inkscape:connector-curvature="0"
   style="fill:#773adc;stroke:none;stroke-width:27.2241993;stroke-linecap:butt" />
				</g>
				<g
   id="shape14679-21"
   transform="translate(46.2039,-8.68155)">
					<title
   id="title56">path20-8</title>
					<path
   d="M 2.07,112.06 A 4.21347,3.72256 90 0 1 0,111.38 l 2.04,6.02 2.01,-5.99 a 4.3071,3.80528 90 0 1 -1.98,0.65 z"
   class="st8"
   id="path58"
   inkscape:connector-curvature="0"
   style="fill:#ffffff;fill-opacity:0.8;stroke:none;stroke-width:27.2241993;stroke-linecap:butt" />
				</g>
				<g
   id="shape14680-23"
   transform="translate(44.4667,-14.0189)">
					<title
   id="title61">circle22-3</title>
					<ellipse
   cx="3.80528"
   cy="113.094"
   rx="3.80528"
   ry="4.3070998"
   class="st7"
   id="ellipse63"
   style="fill:#773adc;stroke:none;stroke-width:27.2241993;stroke-linecap:butt" />
				</g>
				<g
   id="shape14681-25"
   transform="translate(25.138)">
					<title
   id="title66">path24</title>
					<path
   d="m 21.04,117.4 a 2.04724,2.08932 -180 0 0 2.08,-2.12 v -0.26 C 22.3,108.43 18.61,103.03 11.56,103.03 4.5,103.03 0.69,107.6 0,115.05 a 2.04724,2.08932 -180 0 0 1.83,2.32 h 19.24 z"
   class="st9"
   id="path68"
   inkscape:connector-curvature="0"
   style="fill:#a67af4;stroke:none;stroke-width:29.52709961;stroke-linecap:butt" />
				</g>
				<g
   id="shape14682-27"
   transform="translate(33.2955,-4.4356)">
					<title
   id="title71">path26</title>
					<path
   d="M 3.5,109.04 A 6.29921,6.42866 0 0 1 0,107.98 l 3.46,9.42 3.47,-9.22 a 6.29921,6.42866 0 0 1 -3.43,0.86 z"
   class="st10"
   id="path73"
   inkscape:connector-curvature="0"
   style="fill:#ffffff;fill-opacity:0.8;stroke:none;stroke-width:29.52709961;stroke-linecap:butt" />
				</g>
				<g
   id="shape14683-29"
   transform="translate(30.2719,-12.793)">
					<title
   id="title76">circle28</title>
					<ellipse
   cx="6.4881902"
   cy="110.78"
   rx="6.4881902"
   ry="6.62152"
   class="st9"
   id="ellipse78"
   style="fill:#a67af4;stroke:none;stroke-width:29.52709961;stroke-linecap:butt" />
				</g>
			</g>
		</g>
	</g>
</svg>

<svg xmlns="http://www.w3.org/2000/svg" xml:space="preserve" width="75.595" height="71.805" style="font-size:12px;overflow:visible;color-interpolation-filters:sRGB;fill-rule:evenodd;stroke-linecap:square;stroke-miterlimit:3" viewBox="0 0 56.696 53.854"><defs><linearGradient id="a" x1="0" x2="31.905" y1="54.679" y2="54.679" gradientTransform="scale(.73751 1.35591)" gradientUnits="userSpaceOnUse"><stop offset="0" stop-color="#1988d9"/><stop offset=".9" stop-color="#54aef0"/></linearGradient></defs><g transform="translate(-29.527 -29.53)"><title>Page-1</title><g transform="translate(29.527 -34.016)"><title>Azure AD B2B.14669</title><title>layer1</title><g transform="translate(0 -1.175)"><title>path4</title><path d="m3.18 94.9 24.95 16.49 25.38-16.55 3.18 3.76-28.56 18.8L0 98.63Z" style="fill:#50e6ff;stroke:none;stroke-width:29.52709961;stroke-linecap:butt"/></g><g transform="translate(5.07 -10.593)"><title>path6</title><path d="m0 102.2 23.06-28.06 23.52 28.09-23.52 15.17Z" style="fill:#fff;stroke:none;stroke-width:29.52709961;stroke-linecap:butt"/></g><g transform="translate(5.07 -10.593)"><title>path8</title><path d="M23.06 74.14v43.26L0 102.2Z" style="fill:#50e6ff;stroke:none;stroke-width:29.52709961;stroke-linecap:butt"/></g><g transform="translate(28.126 -10.593)"><title>path10</title><path d="M0 74.14v43.26l23.53-15.17Z" style="fill:url(#a);stroke:none;stroke-width:29.52709961;stroke-linecap:butt"/></g><g transform="translate(28.126 -10.593)"><title>path12</title><path d="m0 96.48 23.53 5.75L0 117.4Z" style="fill:#53b1e0;stroke:none;stroke-width:29.52709961;stroke-linecap:butt"/></g><g transform="translate(5.07 -10.593)"><title>path14</title><path d="M23.06 117.4 0 102.2l23.06-5.72Z" style="fill:#9cebff;stroke:none;stroke-width:29.52709961;stroke-linecap:butt"/></g><g transform="translate(28.126 -1.175)"><title>path16</title><path d="m0 117.4 28.57-18.8-3.18-3.76L0 111.39Z" style="fill:#5ea0ef;stroke:none;stroke-width:29.52709961;stroke-linecap:butt"/></g><g transform="translate(41.461 -5.686)"><title>path18-6</title><path d="M12.35 117.25a1.373 1.213-90 0 0 1.22-1.38 7.803 6.894-90 0 0-6.76-7.8c-4.22 0-6.4 2.96-6.81 7.8a1.404 1.24-90 0 0 1.08 1.53h11.27z" style="fill:#773adc;stroke:none;stroke-width:27.2241993;stroke-linecap:butt"/></g><g transform="translate(46.204 -8.682)"><title>path20-8</title><path d="M2.07 112.06a4.213 3.723 90 0 1-2.07-.68l2.04 6.02 2.01-5.99a4.307 3.805 90 0 1-1.98.65" style="fill:#fff;fill-opacity:.8;stroke:none;stroke-width:27.2241993;stroke-linecap:butt"/></g><g transform="translate(44.467 -14.019)"><title>circle22-3</title><ellipse cx="3.805" cy="113.094" rx="3.805" ry="4.307" style="fill:#773adc;stroke:none;stroke-width:27.2241993;stroke-linecap:butt"/></g><g transform="translate(25.138)"><title>path24</title><path d="M21.04 117.4a2.047 2.09-180 0 0 2.08-2.12v-.26c-.82-6.59-4.51-11.99-11.56-11.99C4.5 103.03.69 107.6 0 115.05a2.047 2.09-180 0 0 1.83 2.32h19.24z" style="fill:#a67af4;stroke:none;stroke-width:29.52709961;stroke-linecap:butt"/></g><g transform="translate(33.295 -4.436)"><title>path26</title><path d="M3.5 109.04a6.3 6.429 0 0 1-3.5-1.06l3.46 9.42 3.47-9.22a6.3 6.429 0 0 1-3.43.86" style="fill:#fff;fill-opacity:.8;stroke:none;stroke-width:29.52709961;stroke-linecap:butt"/></g><g transform="translate(30.272 -12.793)"><title>circle28</title><ellipse cx="6.488" cy="110.78" rx="6.488" ry="6.622" style="fill:#a67af4;stroke:none;stroke-width:29.52709961;stroke-linecap:butt"/></g></g></g></svg>
